X: 21060
T: Kennet's Dream [standard tuning]
%R: air, waltz, jig
B: James Oswald "The Caledonian Pocket Companion" v.2 p.106 #1 [scordatura]
Z: 2019 John Chambers <jc:trillian.mit.edu>
N: The book has A,EA^c scordatura tuning, and the tune uses two-voice notation.
N: This transcription is as in the book, for ABC version 2 software.
M: 3/4
L: 1/8
K: A
%%continueall 1
|:"_Slow"\
c4 x2 & c4 B2 | A2 F2 E2 | E2 F2 A2 | TB4 (AB) & E4 x2 | c4 x2 & c4 B2 | {B}A2 F2 E2 |
E2 F2 (AB) | A6 :: c4 e2 & A4 A2 | e4 x2 & A4 f2 | e2 c2 A2 | TB2 A2 B2| c4 e2 & c4 A2 | e4 x2 & A4 f2 |
e2 c2 A2 | B4 (AB) & E4 x2 | c4 e2 & c4 A2 | e4 x2 & A4 f2 | e2 c2 A2 | TB2 A2 B2 | c4 x2 & c4 B2 | A2 F2 E2 |
E2 F2 AB | A4 :: "_Brisk" [M:6/8] c2B AFE | EFA TBAB | c2B AFE |
EFA A3 :: c2e e2f | ecA TBAB | c2x x3 & c2e e2f | x3 B3 & ecA E3 |
c2e e2f | ecA TBAB | c2x x3 & c2B AFE | EFA A3 ::
ccc ccc & AAA AAA | BBB BBB & GGG GGG | A2A, CEA| BAG A3 ::
eAe fAf | edc TB2A | eAe fAf | x3 B3 & edc E3 |
e(c/d/e/c/) f(d/e/f/d/) | edc TBAB | c2x x3 & c2A, CEA | dBG [A3A,3]:|
%%begintext align
%% The book has A,EA^c scordatura tuning; transcribed here as in the book.
%% This tune has two voices, transcribed here with ABC 2.0 voice overlays.
%%endtext
